static/assets/images/exchanges/upbit.svg

<svg width="569" height="256" viewBox="0 0 569 256" fill="none" xmlns="http://www.w3.org/2000/svg">
<path fill-rule="evenodd" clip-rule="evenodd" d="M262.773 256L326.473 62.4595L357.154 72.4439L335.231 0H524.835C559.238 0 577.139 30.7377 564.772 68.5358L552.762 105.107C552.618 105.541 552.461 105.962 552.292 106.416L552.249 106.534L551.735 107.874C548.424 116.874 543.846 125.355 538.142 133.064C520.099 157.597 492.628 173.515 468.166 173.657H372.972L345.957 255.957L262.773 256ZM437.528 130.924H387.021L415.948 42.8188H466.469C479.077 42.8188 485.653 54.1012 481.089 67.9938L468.679 105.749C464.144 119.627 450.166 130.924 437.528 130.924Z" fill="white"/>
<path fill-rule="evenodd" clip-rule="evenodd" d="M37.6814 255.401C39.8178 255.717 41.9702 255.912 44.1285 255.986L212.908 256L276.637 62.5023L239.11 72.4867L308.615 0.0427885H213.763L143.759 213.21H102.295C99.5933 213.282 96.9209 212.638 94.5497 211.341C87.1755 207.476 84.5653 198.333 87.9315 188.049L149.692 0.0427885H65.8232L4.97536 185.139C4.97536 185.139 3.72018 189.204 3.46344 190.146C0.411064 200.986 -0.601639 212.111 1.83741 223.194C2.31954 225.389 2.95341 227.548 3.73445 229.655C5.24612 233.801 7.39741 237.685 10.1102 241.166C14.6032 246.886 20.5368 250.295 27.2263 252.819C30.5925 254.105 34.1038 254.972 37.6814 255.401Z" fill="white"/>
</svg>

<svg xmlns="http://www.w3.org/2000/svg" fill="none" viewBox="0 0 569 256"><path fill="#fff" fill-rule="evenodd" d="m262.773 256 63.7-193.54 30.681 9.984L335.231 0h189.604c34.403 0 52.304 30.738 39.937 68.536l-12.01 36.571c-.144.434-.301.855-.47 1.309l-.043.118-.514 1.34a101 101 0 0 1-13.593 25.19c-18.043 24.533-45.514 40.451-69.976 40.593h-95.194l-27.015 82.3zm174.755-125.076h-50.507l28.927-88.105h50.521c12.608 0 19.184 11.282 14.62 25.175l-12.41 37.755c-4.535 13.878-18.513 25.175-31.151 25.175M37.681 255.401a58 58 0 0 0 6.448.585l168.779.014 63.729-193.498-37.527 9.985L308.615.043h-94.852L143.759 213.21h-41.464a15.3 15.3 0 0 1-7.745-1.869c-7.374-3.865-9.985-13.008-6.618-23.292L149.692.043H65.823L4.975 185.139s-1.255 4.065-1.512 5.007c-3.052 10.84-4.065 21.965-1.626 33.048a49 49 0 0 0 1.897 6.461 42.3 42.3 0 0 0 6.376 11.511c4.493 5.72 10.427 9.129 17.116 11.653a44 44 0 0 0 10.455 2.582" clip-rule="evenodd"/></svg>
